src/assets/icons/label.svg

﻿<?xml version="1.0" encoding="utf-8"?>
<!DOCTYPE svg PUBLIC "-//W3C//DTD SVG 1.1//EN" "http://www.w3.org/Graphics/SVG/1.1/DTD/svg11.dtd">
<svg xmlns="http://www.w3.org/2000/svg" xmlns:xlink="http://www.w3.org/1999/xlink" version="1.1" baseProfile="full" width="24" height="24" viewBox="0 0 24.00 24.00" enable-background="new 0 0 24.00 24.00" xml:space="preserve">
	<path fill="#000000" fill-opacity="1" stroke-width="0.2" stroke-linejoin="round" d="M 17.6323,5.84277C 17.2703,5.33173 16.6733,4.99774 15.9993,4.99774L 4.9993,5.00775C 3.8953,5.00775 2.9993,5.89374 2.9993,6.99774L 2.9993,16.9977C 2.9993,18.1027 3.8953,18.9877 4.9993,18.9877L 15.9993,18.9977C 16.6733,18.9977 17.2703,18.6647 17.6323,18.1537L 21.9993,11.9977L 17.6323,5.84277 Z "/>
</svg>

<svg viewBox="0 0 24 24">
<path d="M17.635 5.845c-0.365-0.51-0.96-0.845-1.635-0.845l-11 0.010c-1.105 0-2 0.885-2 1.99v10c0 1.105 0.895 1.99 2 1.99l11 0.010c0.675 0 1.27-0.335 1.635-0.845l4.365-6.155-4.365-6.155z"></path>
</svg>
